X: 21102
T: LADDIE LIE NEAR ME
Q: "Plaintive"
%R: waltz, minuet
B: "Edinburgh Repository of Music" v.2 p.110 #2
F: http://digital.nls.uk/special-collections-of-printed-music/pageturner.cfm?id=87776133
Z: 2015 John Chambers <jc:trillian.mit.edu>
M: 3/4
L: 1/8
K: Gm
|:\
d2 g2 ^f2 | ~g3 a b2 | d2 g2T^f3/e//f// | g4 ab |\
g=fedcB | ~B3 cdc | B2G2 ^F2 | G4 :|
|: F/G/A |\
B3 c B2 | c4 Bc | (d2 b2) Ta2 | {ga}g3 {ag^fg}a b2 |\
(gf)(ed)(cB) | B3 cdc | B>A G2 ^F2 | G4 H:|

%%sep 2 1 500
%%sep 1 1 500

